public/pieces/california/wB.svg

<svg height="100" viewBox="-50 -60 381.316 511.653" width="100" xmlns="http://www.w3.org/2000/svg" xmlns:xlink="http://www.w3.org/1999/xlink"><clipPath id="a"><path d="m0 70h291.316406v361.652344h-291.316406zm0 0"/></clipPath><g transform="translate(0 -20)"><path d="m180.359375 49.832031c0 19.238281-15.59375 34.832031-34.832031 34.832031-19.238282 0-34.832032-15.59375-34.832032-34.832031s15.59375-34.832031 34.832032-34.832031c19.238281 0 34.832031 15.59375 34.832031 34.832031" fill="#fff"/><path d="m-.000825.00066875c0-19.23828075-15.59375-34.83203075-34.832031-34.83203075-19.238282 0-34.832032 15.59375-34.832032 34.83203075 0 19.23828125 15.59375 34.83203125 34.832032 34.83203125 19.238281 0 34.832031-15.59375 34.832031-34.83203125zm0 0" fill="none" stroke="#000" stroke-linejoin="round" stroke-miterlimit="10" stroke-width="30" transform="matrix(1 0 0 -1 180.3602 49.8327)"/><path d="m248.148438 169.859375c-56.527344 15.363281-94.265626 111.425781-94.265626 111.425781s4.675782-86.519531 44.847657-160.101562c-27.894531-22.265625-52.621094-36.042969-52.621094-36.042969s-132.011719 72.128906-131.105469 154.695313c.910156 82.566406 66.234375 146.984374 58.070313 164.226562-8.167969 17.238281 154.242187 16.332031 146.074219 0-8.164063-16.332031 56.253906-82.566406 57.164062-164.226562.273438-24.710938-11.550781-48.628907-28.164062-69.976563" fill="#ccc"/><path d="m150.316406 91.773438c-50.5 87-62.5 126-62.5 153 0 56.921874 51 148 26.5 162h-36l-45-90-18-63 9-54 36-45zm0 0" fill="#fff"/><g clip-path="url(#a)"><path d="m88.683594 397.546875c9.394531 2.0625 28.707031 4.105469 55.78125 4.105469h1.726562c27.863282-.089844 47.765625-2.253906 57.40625-4.375 1.28125-10.328125 8.089844-22.597656 17.417969-39.402344 16.785156-30.25 39.78125-71.679688 40.296875-118.207031.179688-16.070313-6.0625-33.453125-18.566406-51.785157-36.148438 17.585938-65.898438 76.054688-74.90625 98.898438-2.699219 6.84375-9.972656 10.730469-17.152344 9.15625-7.191406-1.570312-12.179688-8.113281-11.785156-15.460938.1875-3.488281 4.839844-82.3125 40.75-155.089843-13.921875-10.445313-26.230469-18.34375-33.605469-22.859375-11.273437 6.789062-34.03125 21.335937-56.421875 40.691406-27.421875 23.710938-60.027344 59.691406-59.621094 96.453125.515625 46.941406 23.78125 87.902344 40.769532 117.8125 9.722656 17.117187 16.753906 29.496094 17.910156 40.0625m55.890625 34.105469c-16.433594 0-32.316407-.75-44.925781-2.128906-22.621094-2.472657-30.113282-6.277344-34.453126-9.675782-6.410156-5.015625-8.882812-12.816406-6.554687-20.007812-1.128906-4.960938-8.203125-17.414063-13.953125-27.539063-17.554688-30.90625-44.082031-77.609375-44.68359375-132.300781-.42578125-38.867188 23.26562475-79.183594 70.41796875-119.835938 33.710937-29.058593 67.09375-47.421874 68.496094-48.1875 4.519531-2.472656 9.996093-2.449218 14.496093.058594 1.050782.589844 26.132813 14.644532 54.675782 37.425782 5.691406 4.542968 7.296875 12.519531 3.804687 18.914062-12.902343 23.632812-22.003906 48.863281-28.394531 71.898438 19.269531-24.09375 39.617188-39.15625 60.714844-44.890626 5.832031-1.585937 12.054687.488282 15.773437 5.265626 21.066407 27.070312 31.605469 53.769531 31.320313 79.355468-.601563 54.113282-26.753906 101.242188-44.0625 132.429688-5.585938 10.066406-12.453125 22.433594-13.652344 27.425781 2.253906 6.933594-.023438 14.476563-6.089844 19.4375-4.191406 3.421875-11.507812 7.277344-34.039062 9.894531-13.089844 1.515625-29.710938 2.390625-46.804688 2.457032-.695312.003906-1.390625.003906-2.085937.003906"/></g><path d="m.00020625.0006625c15.58203175-24.3359375 181.49999975-28.8398435 197.99999975 0" style="fill:none;stroke-width:30;stroke-linecap:round;stroke-linejoin:round;stroke:#000;stroke-miterlimit:10" transform="matrix(1 0 0 -1 47.3162 344.2741)"/></g></svg>

<?xml version="1.0" encoding="UTF-8"?>
<svg xmlns="http://www.w3.org/2000/svg" xmlns:xlink="http://www.w3.org/1999/xlink" width="100" height="100" viewBox="-50 -60 381.316 511.653" version="1.1">
<defs>
<clipPath id="clip1">
  <path d="M 0 70 L 291.316406 70 L 291.316406 431.652344 L 0 431.652344 Z M 0 70 "/>
</clipPath>
</defs>
<g id="surface1" transform="translate(0 -20)">
<path style=" stroke:none;fill-rule:nonzero;fill:rgb(100%,100%,100%);fill-opacity:1;" d="M 180.359375 49.832031 C 180.359375 69.070312 164.765625 84.664062 145.527344 84.664062 C 126.289062 84.664062 110.695312 69.070312 110.695312 49.832031 C 110.695312 30.59375 126.289062 15 145.527344 15 C 164.765625 15 180.359375 30.59375 180.359375 49.832031 "/>
<path style="fill:none;stroke-width:30;stroke-linecap:butt;stroke-linejoin:round;stroke:rgb(0%,0%,0%);stroke-opacity:1;stroke-miterlimit:10;" d="M -0.000825 0.00066875 C -0.000825 -19.237612 -15.594575 -34.831362 -34.832856 -34.831362 C -54.071138 -34.831362 -69.664888 -19.237612 -69.664888 0.00066875 C -69.664888 19.23895 -54.071138 34.8327 -34.832856 34.8327 C -15.594575 34.8327 -0.000825 19.23895 -0.000825 0.00066875 Z M -0.000825 0.00066875 " transform="matrix(1,0,0,-1,180.3602,49.8327)"/>
<path style=" stroke:none;fill-rule:nonzero;fill:rgb(80.000305%,80.000305%,80.000305%);fill-opacity:1;" d="M 248.148438 169.859375 C 191.621094 185.222656 153.882812 281.285156 153.882812 281.285156 C 153.882812 281.285156 158.558594 194.765625 198.730469 121.183594 C 170.835938 98.917969 146.109375 85.140625 146.109375 85.140625 C 146.109375 85.140625 14.097656 157.269531 15.003906 239.835938 C 15.914062 322.402344 81.238281 386.820312 73.074219 404.0625 C 64.90625 421.300781 227.316406 420.394531 219.148438 404.0625 C 210.984375 387.730469 275.402344 321.496094 276.3125 239.835938 C 276.585938 215.125 264.761719 191.207031 248.148438 169.859375 "/>
<path style=" stroke:none;fill-rule:nonzero;fill:rgb(100%,100%,100%);fill-opacity:1;" d="M 150.316406 91.773438 C 99.816406 178.773438 87.816406 217.773438 87.816406 244.773438 C 87.816406 301.695312 138.816406 392.773438 114.316406 406.773438 L 78.316406 406.773438 L 33.316406 316.773438 L 15.316406 253.773438 L 24.316406 199.773438 L 60.316406 154.773438 Z M 150.316406 91.773438 "/>
<g clip-path="url(#clip1)" clip-rule="nonzero">
<path style=" stroke:none;fill-rule:nonzero;fill:rgb(0%,0%,0%);fill-opacity:1;" d="M 88.683594 397.546875 C 98.078125 399.609375 117.390625 401.652344 144.464844 401.652344 C 145.039062 401.652344 145.613281 401.652344 146.191406 401.652344 C 174.054688 401.5625 193.957031 399.398438 203.597656 397.277344 C 204.878906 386.949219 211.6875 374.679688 221.015625 357.875 C 237.800781 327.625 260.796875 286.195312 261.3125 239.667969 C 261.492188 223.597656 255.25 206.214844 242.746094 187.882812 C 206.597656 205.46875 176.847656 263.9375 167.839844 286.78125 C 165.140625 293.625 157.867188 297.511719 150.6875 295.9375 C 143.496094 294.367188 138.507812 287.824219 138.902344 280.476562 C 139.089844 276.988281 143.742188 198.164062 179.652344 125.386719 C 165.730469 114.941406 153.421875 107.042969 146.046875 102.527344 C 134.773438 109.316406 112.015625 123.863281 89.625 143.21875 C 62.203125 166.929688 29.597656 202.910156 30.003906 239.671875 C 30.519531 286.613281 53.785156 327.574219 70.773438 357.484375 C 80.496094 374.601562 87.527344 386.980469 88.683594 397.546875 M 144.574219 431.652344 C 128.140625 431.652344 112.257812 430.902344 99.648438 429.523438 C 77.027344 427.050781 69.535156 423.246094 65.195312 419.847656 C 58.785156 414.832031 56.3125 407.03125 58.640625 399.839844 C 57.511719 394.878906 50.4375 382.425781 44.6875 372.300781 C 27.132812 341.394531 0.605469 294.691406 0.00390625 240 C -0.421875 201.132812 23.269531 160.816406 70.421875 120.164062 C 104.132812 91.105469 137.515625 72.742188 138.917969 71.976562 C 143.4375 69.503906 148.914062 69.527344 153.414062 72.035156 C 154.464844 72.625 179.546875 86.679688 208.089844 109.460938 C 213.78125 114.003906 215.386719 121.980469 211.894531 128.375 C 198.992188 152.007812 189.890625 177.238281 183.5 200.273438 C 202.769531 176.179688 223.117188 161.117188 244.214844 155.382812 C 250.046875 153.796875 256.269531 155.871094 259.988281 160.648438 C 281.054688 187.71875 291.59375 214.417969 291.308594 240.003906 C 290.707031 294.117188 264.554688 341.246094 247.246094 372.433594 C 241.660156 382.5 234.792969 394.867188 233.59375 399.859375 C 235.847656 406.792969 233.570312 414.335938 227.503906 419.296875 C 223.3125 422.71875 215.996094 426.574219 193.464844 429.191406 C 180.375 430.707031 163.753906 431.582031 146.660156 431.648438 C 145.964844 431.652344 145.269531 431.652344 144.574219 431.652344 "/>
</g>
<path style="fill:none;stroke-width:30;stroke-linecap:round;stroke-linejoin:round;stroke:rgb(0%,0%,0%);stroke-opacity:1;stroke-miterlimit:10;" d="M 0.00020625 0.0006625 C 15.582238 -24.335275 181.500206 -28.839181 198.000206 0.0006625 " transform="matrix(1,0,0,-1,47.3162,344.2741)"/>
</g>
</svg>
